images/about/about-trainline.svg

<svg fill="none" height="150" viewBox="0 0 250 150" width="250" xmlns="http://www.w3.org/2000/svg"><g fill="#00a88f"><path d="m128.221 58.3263c0-2.4256 1.945-4.3661 4.295-4.3257 2.391 0 4.296 1.9001 4.296 4.3257 0 2.3042-1.864 4.2447-4.296 4.2447-2.35 0-4.295-1.9405-4.295-4.2447z"/><path clip-rule="evenodd" d="m123.844 75.7499c0-5.1746-3.039-9.7831-11.225-9.7831-6.93 0-10.659 4.4469-11.064 8.4895l6.2 1.2936c.203-2.2639 1.905-4.2043 4.944-4.2043 2.918 0 4.337 1.5362 4.337 3.3554 0 .8893-.487 1.6169-1.945 1.8192l-6.363.9298c-4.296.6466-7.7 3.234-7.7 7.8427 0 4.0426 3.364 7.7618 8.875 7.7618 3.81 0 6.282-1.779 7.619-3.8406 0 1.0106.122 2.4256.243 3.0724h6.403c-.162-.8894-.324-2.7086-.324-4.0831zm-6.849 6.3065c0 4.5681-2.715 5.983-5.673 5.983-2.27 0-3.364-1.4552-3.364-2.9916 0-1.9807 1.418-2.9914 3.202-3.234l5.835-.8893z" fill-rule="evenodd"/><path d="m90.3306 70.5754v-3.8405h-6.7677v25.7513h6.9703v-11.764c0-5.5383 3.0799-7.2766 6.6462-7.2766.6482 0 1.2966.0405 2.1072.2021v-6.9937c-.1704-.0131-.3407-.0304-.5125-.0478-.3593-.0364-.7246-.0734-1.1085-.0734-2.1883 0-5.7545.6468-7.335 4.0426z"/><path d="m129.072 92.4863h6.97v-25.7513h-6.97z"/><path d="m148.124 69.9286c1.581-2.6683 4.661-3.8809 7.457-3.8809 6.403 0 9.32 4.568 9.32 10.2277v16.2513h-6.97v-15.0384c0-2.8702-1.418-5.1341-4.782-5.1341-3.039 0-4.822 2.3446-4.822 5.3362v14.7958h-6.97v-25.7513h6.767z"/><path d="m179.63 86.6651c-1.743 0-2.999-.6468-2.999-2.8703v-29.1878h-6.849v30.3601c0 4.9724 3.161 7.9234 8.186 7.9234 1.094 0 1.905-.1212 2.878-.3233v-5.9426c-.487.0405-.851.0405-1.216.0405z"/><path d="m183.757 58.3263c0-2.4256 1.905-4.3661 4.296-4.3257 2.391 0 4.296 1.9001 4.296 4.3257 0 2.3042-1.864 4.2447-4.296 4.2447-2.35 0-4.296-1.9405-4.296-4.2447z"/><path d="m191.538 92.4863v-25.7513h-6.97v25.7513z"/><path d="m203.62 69.9286c1.581-2.6683 4.661-3.8809 7.457-3.8809 6.403 0 9.321 4.568 9.321 10.2277v16.2513h-6.971v-15.0384c0-2.8702-1.418-5.1341-4.781-5.1341-3.04 0-4.823 2.3446-4.823 5.3362v14.7958h-6.97v-25.7513h6.767z"/><path clip-rule="evenodd" d="m249.199 79.3075c0-8.2874-4.782-13.3407-12.725-13.3407-6.605 0-12.684 5.3362-12.684 13.5428 0 8.6916 6.241 13.7853 13.333 13.7853 6.362 0 10.415-3.7192 11.752-8.1662l-5.876-1.7383c-.851 2.3044-2.634 3.9215-5.876 3.9215-3.445 0-6.363-2.466-6.484-5.8619h18.439c0-.0152.002-.0445.005-.086.003-.0433.008-.0998.014-.1675l.001-.0024c.034-.3865.101-1.1366.101-1.8866zm-18.439-2.6278c.162-2.3446 2.148-5.0937 5.755-5.0937 3.971 0 5.673 2.5065 5.754 5.0937z" fill-rule="evenodd"/><path d="m67.8612 59.0539h6.3008v7.6999h5.1982v6.1805h-5.1982v10.7903c0 2.252 1.0501 2.9854 3.0454 2.9854.84 0 1.7852-.1048 2.1528-.2097v5.7617c-.6302.262-1.8902.6285-3.9381.6285-5.0406 0-8.1911-2.9854-8.1911-7.9613v-11.9949h-4.6729v-6.1805h1.3124c2.7305 0 3.9907-1.7811 3.9907-4.0856z"/><path d="m47.6059 58.5446c-5.1663-5.1537-13.5727-5.1537-18.7393 0l-10.6188 10.5929-3.1231-3.1156c-1.0351-1.0323-2.713-1.0323-3.748 0-1.0349 1.0326-1.0349 2.7064 0 3.7387l6.8711 6.8544 14.3668-14.3317c3.0998-3.0923 8.1437-3.0923 11.2435 0 1.5016 1.4979 2.3287 3.4896 2.3287 5.6081s-.8271 4.1101-2.3287 5.6081l-21.8625 21.8091c2.0699 2.0647 5.4258 2.0649 7.4957 0l18.1146-18.0704c5.1664-5.1539 5.1664-13.5398 0-18.6936z"/><path d="m36.3624 66.022c1.0349-1.0324 2.713-1.0324 3.7478 0 1.0349 1.0323 1.0349 2.7063 0 3.7387l-21.8624 21.8091-14.3668-14.3316c-2.50261-2.4967-3.881-5.8161-3.881-9.3468s1.37839-6.8503 3.881-9.3468c4.9566-4.9444 12.8944-5.1444 18.0933-.6019l-3.7614 3.7522c-3.1187-2.4889-7.6953-2.2933-10.58408.5884-3.09978 3.0922-3.09978 8.1238 0 11.2162l10.61898 10.5929z"/></g></svg>

<svg width="250" height="150" viewBox="0 0 250 150" fill="none" xmlns="http://www.w3.org/2000/svg">
<path d="M128.221 58.3263C128.221 55.9007 130.166 53.9602 132.516 54.0006C134.907 54.0006 136.812 55.9007 136.812 58.3263C136.812 60.6305 134.948 62.571 132.516 62.571C130.166 62.571 128.221 60.6305 128.221 58.3263Z" fill="#00A88F"/>
<path fill-rule="evenodd" clip-rule="evenodd" d="M123.844 75.7499C123.844 70.5753 120.805 65.9668 112.619 65.9668C105.689 65.9668 101.96 70.4137 101.555 74.4563L107.755 75.7499C107.958 73.486 109.66 71.5456 112.699 71.5456C115.617 71.5456 117.036 73.0818 117.036 74.901C117.036 75.7903 116.549 76.5179 115.091 76.7202L108.728 77.65C104.432 78.2966 101.028 80.884 101.028 85.4927C101.028 89.5353 104.392 93.2545 109.903 93.2545C113.713 93.2545 116.185 91.4755 117.522 89.4139C117.522 90.4245 117.644 91.8395 117.765 92.4863H124.168C124.006 91.5969 123.844 89.7777 123.844 88.4032V75.7499ZM116.995 82.0564C116.995 86.6245 114.28 88.0394 111.322 88.0394C109.052 88.0394 107.958 86.5842 107.958 85.0478C107.958 83.0671 109.376 82.0564 111.16 81.8138L116.995 80.9245V82.0564Z" fill="#00A88F"/>
<path d="M90.3306 70.5754V66.7349H83.5629V92.4862H90.5332V80.7222C90.5332 75.1839 93.6131 73.4456 97.1794 73.4456C97.8276 73.4456 98.476 73.4861 99.2866 73.6477V66.654C99.1162 66.6409 98.9459 66.6236 98.7741 66.6062C98.4148 66.5698 98.0495 66.5328 97.6656 66.5328C95.4773 66.5328 91.9111 67.1796 90.3306 70.5754Z" fill="#00A88F"/>
<path d="M129.072 92.4863H136.042V66.735H129.072V92.4863Z" fill="#00A88F"/>
<path d="M148.124 69.9286C149.705 67.2603 152.785 66.0477 155.581 66.0477C161.984 66.0477 164.901 70.6157 164.901 76.2754V92.5267H157.931V77.4883C157.931 74.6181 156.513 72.3542 153.149 72.3542C150.11 72.3542 148.327 74.6988 148.327 77.6904V92.4862H141.357V66.7349H148.124V69.9286Z" fill="#00A88F"/>
<path d="M179.63 86.6651C177.887 86.6651 176.631 86.0183 176.631 83.7948V54.607H169.782V84.9671C169.782 89.9395 172.943 92.8905 177.968 92.8905C179.062 92.8905 179.873 92.7693 180.846 92.5672V86.6246C180.359 86.6651 179.995 86.6651 179.63 86.6651Z" fill="#00A88F"/>
<path d="M183.757 58.3263C183.757 55.9007 185.662 53.9602 188.053 54.0006C190.444 54.0006 192.349 55.9007 192.349 58.3263C192.349 60.6305 190.485 62.571 188.053 62.571C185.703 62.571 183.757 60.6305 183.757 58.3263Z" fill="#00A88F"/>
<path d="M191.538 92.4863V66.735H184.568V92.4863H191.538Z" fill="#00A88F"/>
<path d="M203.62 69.9286C205.201 67.2603 208.281 66.0477 211.077 66.0477C217.48 66.0477 220.398 70.6157 220.398 76.2754V92.5267H213.427V77.4883C213.427 74.6181 212.009 72.3542 208.646 72.3542C205.606 72.3542 203.823 74.6988 203.823 77.6904V92.4862H196.853V66.7349H203.62V69.9286Z" fill="#00A88F"/>
<path fill-rule="evenodd" clip-rule="evenodd" d="M249.199 79.3075C249.199 71.0201 244.417 65.9668 236.474 65.9668C229.869 65.9668 223.79 71.303 223.79 79.5096C223.79 88.2012 230.031 93.2949 237.123 93.2949C243.485 93.2949 247.538 89.5757 248.875 85.1287L242.999 83.3904C242.148 85.6948 240.365 87.3119 237.123 87.3119C233.678 87.3119 230.76 84.8459 230.639 81.45H249.078C249.078 81.4348 249.08 81.4055 249.083 81.364C249.086 81.3207 249.091 81.2642 249.097 81.1965L249.098 81.1941C249.132 80.8076 249.199 80.0575 249.199 79.3075ZM230.76 76.6797C230.922 74.3351 232.908 71.586 236.515 71.586C240.486 71.586 242.188 74.0925 242.269 76.6797H230.76Z" fill="#00A88F"/>
<path d="M67.8612 59.0539H74.162V66.7538H79.3602V72.9343H74.162V83.7246C74.162 85.9766 75.2121 86.71 77.2074 86.71C78.0474 86.71 78.9926 86.6052 79.3602 86.5003V92.262C78.73 92.524 77.47 92.8905 75.4221 92.8905C70.3815 92.8905 67.231 89.9051 67.231 84.9292V72.9343H62.5581V66.7538H63.8705C66.601 66.7538 67.8612 64.9727 67.8612 62.6682V59.0539Z" fill="#00A88F"/>
<path d="M47.6059 58.5446C42.4396 53.3909 34.0332 53.3909 28.8666 58.5446L18.2478 69.1375L15.1247 66.0219C14.0896 64.9896 12.4117 64.9896 11.3767 66.0219C10.3418 67.0545 10.3418 68.7283 11.3767 69.7606L18.2478 76.615L32.6146 62.2833C35.7144 59.191 40.7583 59.191 43.8581 62.2833C45.3597 63.7812 46.1868 65.7729 46.1868 67.8914C46.1868 70.0099 45.3597 72.0015 43.8581 73.4995L21.9956 95.3086C24.0655 97.3733 27.4214 97.3735 29.4913 95.3086L47.6059 77.2382C52.7723 72.0843 52.7723 63.6984 47.6059 58.5446Z" fill="#00A88F"/>
<path d="M36.3624 66.022C37.3973 64.9896 39.0754 64.9896 40.1102 66.022C41.1451 67.0543 41.1451 68.7283 40.1102 69.7607L18.2478 91.5698L3.881 77.2382C1.37839 74.7415 0 71.4221 0 67.8914C0 64.3607 1.37839 61.0411 3.881 58.5446C8.8376 53.6002 16.7754 53.4002 21.9743 57.9427L18.2129 61.6949C15.0942 59.206 10.5176 59.4016 7.62882 62.2833C4.52904 65.3755 4.52904 70.4071 7.62882 73.4995L18.2478 84.0924L36.3624 66.022Z" fill="#00A88F"/>
</svg>
